apps/ui-icons/svgs/double_arrow_left.svg

<svg viewBox="0 0 24 24" width="24" height="24"  fill="none" xmlns="http://www.w3.org/2000/svg">
<path d="M11.1648 11.4498C10.9085 11.8379 10.9512 12.3654 11.2929 12.7071L16.2929 17.7071C16.6834 18.0976 17.3166 18.0976 17.7071 17.7071C18.0976 17.3166 18.0976 16.6834 17.7071 16.2929L13.4142 12L17.7071 7.70711C18.0976 7.31658 18.0976 6.68342 17.7071 6.29289C17.3166 5.90237 16.6834 5.90237 16.2929 6.29289L11.2932 11.2926C11.2444 11.3414 11.2014 11.3943 11.1648 11.4498Z" fill="#171D26"/>
<path d="M5.16475 11.4498C4.90847 11.8379 4.95118 12.3654 5.29289 12.7071L10.2929 17.7071C10.6834 18.0976 11.3166 18.0976 11.7071 17.7071C12.0976 17.3166 12.0976 16.6834 11.7071 16.2929L7.41421 12L11.7071 7.70711C12.0976 7.31658 12.0976 6.68342 11.7071 6.29289C11.3166 5.90237 10.6834 5.90237 10.2929 6.29289L5.29319 11.2926C5.24437 11.3414 5.20136 11.3943 5.16475 11.4498Z" fill="#171D26"/>
</svg>

<svg xmlns="http://www.w3.org/2000/svg" width="24" height="24" fill="none" viewBox="0 0 24 24">
  <path fill="#171D26" d="M11.165 11.45a1 1 0 0 0 .128 1.257l5 5a1 1 0 0 0 1.414-1.414L13.414 12l4.293-4.293a1 1 0 0 0-1.414-1.414l-5 5a1.006 1.006 0 0 0-.128.157Z"/>
  <path fill="#171D26" d="M5.165 11.45a1 1 0 0 0 .128 1.257l5 5a1 1 0 0 0 1.414-1.414L7.414 12l4.293-4.293a1 1 0 0 0-1.414-1.414l-5 5a1.006 1.006 0 0 0-.128.157Z"/>
</svg>
